src/assets/img/unsorted/emotes/31.svg

<svg xmlns:xlink="http://www.w3.org/1999/xlink" height="100.8" width="132.65" xmlns="http://www.w3.org/2000/svg"><g transform="translate(77.75 73.55)"><use height="6.45" transform="translate(-15.05 -3.6)" width="30.05" xlink:href="#a"/><use height="35.95" transform="translate(-23.5 -22.35)" width="48.5" xlink:href="#b"/><use height="13.1" transform="translate(-10.65 -11.55)" width="21.75" xlink:href="#c"/><use height="11.35" transform="translate(6.3 7.8)" width="3.05" xlink:href="#d"/></g><defs><g id="b" transform="translate(23.45 29.5)"><use height="9.95" transform="matrix(.9409 0 0 1.309 -12.42 -6.57)" width="25.5" xlink:href="#e"/><use height="2.4" transform="translate(-22.35 -10.6)" width="2.4" xlink:href="#f"/><use height="2.4" transform="translate(-23.45 -17)" width="2.4" xlink:href="#f"/><use height="2.4" transform="translate(-13.55 -25.6)" width="2.4" xlink:href="#f"/><use height="2.4" transform="translate(1.45 -29.5)" width="2.4" xlink:href="#f"/><use height="2.4" transform="translate(4.45 -25.6)" width="2.4" xlink:href="#f"/><use height="2.4" transform="translate(15.05 -14.8)" width="2.4" xlink:href="#f"/><use height="2.4" transform="translate(22.65 -12.2)" width="2.4" xlink:href="#f"/><use height="2.4" transform="translate(20.45 -8.2)" width="2.4" xlink:href="#f"/></g><g id="i"><path d="M8.05.2q.25 1.25-.95 2.85h-1L5.7 3v-.45l-.05-.5-.2-.55q-.2-.35-.7-.35-.55-.05-.8.35-.25.35-.35.85l-.05.55-10.25.65q-.65-.7-.95-2.75L5.2-.05 8.05.2" fill="#fff" fill-rule="evenodd" transform="translate(13.2 .55)"/><path d="M-6.6 6.85q5.85-2.7 12.85-.2L.3 8.9l-6.9-2.05" fill="#c00" fill-rule="evenodd" transform="translate(13.2 .55)"/><path d="M-7.65.8q.3 2.05.95 2.75L3.55 2.9l.05-.55q.1-.5.35-.85.25-.4.8-.35.5 0 .7.35l.2.55.05.5V3l.4.05h1q1.2-1.6.95-2.85l2.3.25q4.25 2.1-4.1 6.2-7-2.5-12.85.2-4.55-1.75-5.75-3.1-1.2-1.4 2-2.5l2.7-.45" fill-rule="evenodd" transform="translate(13.2 .55)"/><path d="M8.05.2 5.2-.05-7.65.8l-2.7.45q-3.2 1.1-2 2.5 1.2 1.35 5.75 3.1L.3 8.9l5.95-2.25q8.35-4.1 4.1-6.2L8.05.2Z" fill="none" stroke="#333" stroke-linecap="round" stroke-linejoin="round" transform="translate(13.2 .55)"/></g><g id="c" transform="translate(-1 .6)"><use height="10.9" transform="rotate(180 5.875 5.15)" width="10.75" xlink:href="#g"/><use height="13" transform="translate(11.45 -.5)" width="10.75" xlink:href="#h"/></g><g id="k"><path d="M0-3.8q2-.05 3.45 1.45 1.4 1.45 1.4 3.5T3.45 4.7Q2 6.1 0 6.1q-2.05 0-3.45-1.4Q-4.9 3.2-4.9 1.15t1.45-3.5Q-2.05-3.85 0-3.8" fill="#fff" fill-rule="evenodd" transform="translate(5.4 4.3)"/><path d="M0-3.8q2-.05 3.45 1.45 1.4 1.45 1.4 3.5T3.45 4.7Q2 6.1 0 6.1q-2.05 0-3.45-1.4Q-4.9 3.2-4.9 1.15t1.45-3.5Q-2.05-3.85 0-3.8Z" fill="none" stroke="#666" stroke-linecap="round" stroke-linejoin="round" transform="translate(5.4 4.3)"/><path d="M2.55 3.1q-.4.4-.85.4-.5 0-.85-.4Q.5 2.65.5 2.05q0-.6.35-1Q1.2.6 1.7.6q.45 0 .85.45l.35 1-.35 1.05" fill="#900" fill-rule="evenodd" transform="translate(5.4 4.3)"/></g><g id="l"><path d="M0-6q2 0 3.45 1.75Q4.85-2.5 4.85 0t-1.4 4.25Q2 6 0 6q-2.05 0-3.45-1.75Q-4.9 2.5-4.9 0t1.45-4.25Q-2.05-6 0-6" fill="#fff" fill-rule="evenodd" transform="translate(5.4 6.5)"/><path d="M0-6q2 0 3.45 1.75Q4.85-2.5 4.85 0t-1.4 4.25Q2 6 0 6q-2.05 0-3.45-1.75Q-4.9 2.5-4.9 0t1.45-4.25Q-2.05-6 0-6Z" fill="none" stroke="#666" stroke-linecap="round" stroke-linejoin="round" transform="translate(5.4 6.5)"/><path d="m0-.1.2.5q.15.25.4.3L1 .4l.2-.5L1-.75l-.4-.2q-.25 0-.4.2L0-.1m1-1.75q.65-.05 1.15.6.5.65.5 1.65 0 .95-.5 1.6-.5.65-1.15.65-.7 0-1.2-.65-.45-.65-.45-1.6 0-1 .45-1.65.5-.65 1.2-.6" fill-rule="evenodd" transform="translate(5.4 6.5)"/><path d="m0-.1.2-.65q.15-.2.4-.2l.4.2.2.65-.2.5-.4.3Q.35.65.2.4L0-.1" fill="#fff" fill-rule="evenodd" transform="translate(5.4 6.5)"/></g><use height="9.95" width="25.5" xlink:href="#i" id="e"/><use height="2.4" width="2.4" xlink:href="#j" id="f"/><use height="10.9" width="10.75" xlink:href="#k" id="g"/><use height="13" width="10.75" xlink:href="#l" id="h"/><path d="M10.65-1.35Q14.95.9 15 2.1q0 1.15-3.9.5l-10-.95-11.15.7q-5 .9-5-.3 0-1.15 4.5-3.35 4.5-2.25 10.7-2.3 6.2-.05 10.5 2.25" fill="#6596cc" fill-opacity=".431" fill-rule="evenodd" transform="translate(15.05 3.6)" id="a"/><path d="M.85-.85q.35.35.35.85T.85.85Q.5 1.2 0 1.2T-.85.85Q-1.2.5-1.2 0t.35-.85Q-.5-1.2 0-1.2t.85.35" fill="#fff" fill-rule="evenodd" transform="translate(1.2 1.2)" id="j"/><path d="M7.25 7.95H7.2q.1-.1.35-.15.55-.15.85 2.15l.75 4.65Q9.6 17 9 18.2q-.6 1.15-1.65.9-1.1-.3-.55-3.8.5-3.55-.5-5.65V9.4q0-.7.95-1.45" fill="#acc9e3" fill-rule="evenodd" transform="translate(-6.3 -7.8)" id="d"/></defs></svg>

<?xml version="1.0" encoding="UTF-8" standalone="no"?>
<svg xmlns:xlink="http://www.w3.org/1999/xlink" height="100.8px" width="132.65px" xmlns="http://www.w3.org/2000/svg">
  <g transform="matrix(1.0, 0.0, 0.0, 1.0, 77.75, 73.55)">
    <use height="6.45" transform="matrix(1.0, 0.0, 0.0, 1.0, -15.05, -3.6)" width="30.05" xlink:href="#shape0"/>
    <use height="35.95" transform="matrix(1.0, 0.0, 0.0, 1.0, -23.5, -22.35)" width="48.5" xlink:href="#sprite0"/>
    <use height="13.1" transform="matrix(1.0, 0.0, 0.0, 1.0, -10.65, -11.55)" width="21.75" xlink:href="#sprite3"/>
    <use height="11.35" transform="matrix(1.0, 0.0, 0.0, 1.0, 6.3, 7.8)" width="3.05" xlink:href="#shape5"/>
  </g>
  <defs>
    <g id="shape0" transform="matrix(1.0, 0.0, 0.0, 1.0, 15.05, 3.6)">
      <path d="M10.65 -1.35 Q14.95 0.9 15.0 2.1 15.0 3.25 11.1 2.6 L1.1 1.65 -10.05 2.35 Q-15.05 3.25 -15.05 2.05 -15.05 0.9 -10.55 -1.3 -6.05 -3.55 0.15 -3.6 6.35 -3.65 10.65 -1.35" fill="#6596cc" fill-opacity="0.43137255" fill-rule="evenodd" stroke="none"/>
    </g>
    <g id="sprite0" transform="matrix(1.0, 0.0, 0.0, 1.0, 23.45, 29.5)">
      <use height="9.95" transform="matrix(0.9409, 0.0, 0.0, 1.309, -12.4205, -6.5699)" width="25.5" xlink:href="#sprite1"/>
      <use height="2.4" transform="matrix(1.0, 0.0, 0.0, 1.0, -22.35, -10.6)" width="2.4" xlink:href="#sprite2"/>
      <use height="2.4" transform="matrix(1.0, 0.0, 0.0, 1.0, -23.45, -17.0)" width="2.4" xlink:href="#sprite2"/>
      <use height="2.4" transform="matrix(1.0, 0.0, 0.0, 1.0, -13.55, -25.6)" width="2.4" xlink:href="#sprite2"/>
      <use height="2.4" transform="matrix(1.0, 0.0, 0.0, 1.0, 1.45, -29.5)" width="2.4" xlink:href="#sprite2"/>
      <use height="2.4" transform="matrix(1.0, 0.0, 0.0, 1.0, 4.45, -25.6)" width="2.4" xlink:href="#sprite2"/>
      <use height="2.4" transform="matrix(1.0, 0.0, 0.0, 1.0, 15.05, -14.8)" width="2.4" xlink:href="#sprite2"/>
      <use height="2.4" transform="matrix(1.0, 0.0, 0.0, 1.0, 22.65, -12.2)" width="2.4" xlink:href="#sprite2"/>
      <use height="2.4" transform="matrix(1.0, 0.0, 0.0, 1.0, 20.45, -8.2)" width="2.4" xlink:href="#sprite2"/>
    </g>
    <g id="sprite1" transform="matrix(1.0, 0.0, 0.0, 1.0, 13.2, 0.55)">
      <use height="9.95" transform="matrix(1.0, 0.0, 0.0, 1.0, -13.2, -0.55)" width="25.5" xlink:href="#shape1"/>
    </g>
    <g id="shape1" transform="matrix(1.0, 0.0, 0.0, 1.0, 13.2, 0.55)">
      <path d="M8.05 0.2 Q8.3 1.45 7.1 3.05 L6.1 3.05 5.7 3.0 5.7 2.85 5.7 2.55 5.65 2.05 5.45 1.5 Q5.25 1.15 4.75 1.15 4.2 1.1 3.95 1.5 3.7 1.85 3.6 2.35 L3.55 2.9 -6.7 3.55 Q-7.35 2.85 -7.65 0.8 L5.2 -0.05 8.05 0.2" fill="#ffffff" fill-rule="evenodd" stroke="none"/>
      <path d="M-6.6 6.85 Q-0.75 4.15 6.25 6.65 L0.3 8.9 -6.6 6.85" fill="#cc0000" fill-rule="evenodd" stroke="none"/>
      <path d="M-7.65 0.8 Q-7.35 2.85 -6.7 3.55 L3.55 2.9 3.6 2.35 Q3.7 1.85 3.95 1.5 4.2 1.1 4.75 1.15 5.25 1.15 5.45 1.5 L5.65 2.05 5.7 2.55 5.7 2.85 5.7 3.0 6.1 3.05 7.1 3.05 Q8.3 1.45 8.05 0.2 L10.35 0.45 Q14.6 2.55 6.25 6.65 -0.75 4.15 -6.6 6.85 -11.15 5.1 -12.35 3.75 -13.55 2.35 -10.35 1.25 L-7.65 0.8" fill="#000000" fill-rule="evenodd" stroke="none"/>
      <path d="M8.05 0.2 L5.2 -0.05 -7.65 0.8 -10.35 1.25 Q-13.55 2.35 -12.35 3.75 -11.15 5.1 -6.6 6.85 L0.3 8.9 6.25 6.65 Q14.6 2.55 10.35 0.45 L8.05 0.2 Z" fill="none" stroke="#333333" stroke-linecap="round" stroke-linejoin="round" stroke-width="1.0"/>
    </g>
    <g id="sprite2" transform="matrix(1.0, 0.0, 0.0, 1.0, 1.2, 1.2)">
      <use height="2.4" transform="matrix(1.0, 0.0, 0.0, 1.0, -1.2, -1.2)" width="2.4" xlink:href="#shape2"/>
    </g>
    <g id="shape2" transform="matrix(1.0, 0.0, 0.0, 1.0, 1.2, 1.2)">
      <path d="M0.85 -0.85 Q1.2 -0.5 1.2 0.0 1.2 0.5 0.85 0.85 0.5 1.2 0.0 1.2 -0.5 1.2 -0.85 0.85 -1.2 0.5 -1.2 0.0 -1.2 -0.5 -0.85 -0.85 -0.5 -1.2 0.0 -1.2 0.5 -1.2 0.85 -0.85" fill="#ffffff" fill-rule="evenodd" stroke="none"/>
    </g>
    <g id="sprite3" transform="matrix(1.0, 0.0, 0.0, 1.0, -1.0, 0.6)">
      <use height="10.9" transform="matrix(-1.0, 0.0, 0.0, -1.0, 11.75, 10.3)" width="10.75" xlink:href="#sprite4"/>
      <use height="13.0" transform="matrix(1.0, 0.0, 0.0, 1.0, 11.45, -0.5)" width="10.75" xlink:href="#sprite5"/>
    </g>
    <g id="sprite4" transform="matrix(1.0, 0.0, 0.0, 1.0, 5.4, 4.3)">
      <use height="10.9" transform="matrix(1.0, 0.0, 0.0, 1.0, -5.4, -4.3)" width="10.75" xlink:href="#shape3"/>
    </g>
    <g id="shape3" transform="matrix(1.0, 0.0, 0.0, 1.0, 5.4, 4.3)">
      <path d="M0.0 -3.8 Q2.0 -3.85 3.45 -2.35 4.85 -0.9 4.85 1.15 4.85 3.2 3.45 4.7 2.0 6.1 0.0 6.1 -2.05 6.1 -3.45 4.7 -4.9 3.2 -4.9 1.15 -4.9 -0.9 -3.45 -2.35 -2.05 -3.85 0.0 -3.8" fill="#ffffff" fill-rule="evenodd" stroke="none"/>
      <path d="M0.0 -3.8 Q2.0 -3.85 3.45 -2.35 4.85 -0.9 4.85 1.15 4.85 3.2 3.45 4.7 2.0 6.1 0.0 6.1 -2.05 6.1 -3.45 4.7 -4.9 3.2 -4.9 1.15 -4.9 -0.9 -3.45 -2.35 -2.05 -3.85 0.0 -3.8 Z" fill="none" stroke="#666666" stroke-linecap="round" stroke-linejoin="round" stroke-width="1.0"/>
      <path d="M2.55 3.1 Q2.15 3.5 1.7 3.5 1.2 3.5 0.85 3.1 0.5 2.65 0.5 2.05 0.5 1.45 0.85 1.05 1.2 0.6 1.7 0.6 2.15 0.6 2.55 1.05 L2.9 2.05 2.55 3.1" fill="#990000" fill-rule="evenodd" stroke="none"/>
    </g>
    <g id="sprite5" transform="matrix(1.0, 0.0, 0.0, 1.0, 5.4, 6.5)">
      <use height="13.0" transform="matrix(1.0, 0.0, 0.0, 1.0, -5.4, -6.5)" width="10.75" xlink:href="#shape4"/>
    </g>
    <g id="shape4" transform="matrix(1.0, 0.0, 0.0, 1.0, 5.4, 6.5)">
      <path d="M0.0 -6.0 Q2.0 -6.0 3.45 -4.25 4.85 -2.5 4.85 0.0 4.85 2.5 3.45 4.25 2.0 6.0 0.0 6.0 -2.05 6.0 -3.45 4.25 -4.9 2.5 -4.9 0.0 -4.9 -2.5 -3.45 -4.25 -2.05 -6.0 0.0 -6.0" fill="#ffffff" fill-rule="evenodd" stroke="none"/>
      <path d="M0.0 -6.0 Q2.0 -6.0 3.45 -4.25 4.85 -2.5 4.85 0.0 4.85 2.5 3.45 4.25 2.0 6.0 0.0 6.0 -2.05 6.0 -3.45 4.25 -4.9 2.5 -4.9 0.0 -4.9 -2.5 -3.45 -4.25 -2.05 -6.0 0.0 -6.0 Z" fill="none" stroke="#666666" stroke-linecap="round" stroke-linejoin="round" stroke-width="1.0"/>
      <path d="M0.0 -0.1 L0.2 0.4 Q0.35 0.65 0.6 0.7 L1.0 0.4 1.2 -0.1 1.0 -0.75 0.6 -0.95 Q0.35 -0.95 0.2 -0.75 L0.0 -0.1 M1.0 -1.85 Q1.65 -1.9 2.15 -1.25 2.65 -0.6 2.65 0.4 2.65 1.35 2.15 2.0 1.65 2.65 1.0 2.65 0.3 2.65 -0.2 2.0 -0.65 1.35 -0.65 0.4 -0.65 -0.6 -0.2 -1.25 0.3 -1.9 1.0 -1.85" fill="#000000" fill-rule="evenodd" stroke="none"/>
      <path d="M0.0 -0.1 L0.2 -0.75 Q0.35 -0.95 0.6 -0.95 L1.0 -0.75 1.2 -0.1 1.0 0.4 0.6 0.7 Q0.35 0.65 0.2 0.4 L0.0 -0.1" fill="#ffffff" fill-rule="evenodd" stroke="none"/>
    </g>
    <g id="shape5" transform="matrix(1.0, 0.0, 0.0, 1.0, -6.3, -7.8)">
      <path d="M7.25 7.95 L7.2 7.95 Q7.3 7.85 7.55 7.8 8.1 7.65 8.4 9.95 L9.15 14.6 Q9.6 17.0 9.0 18.2 8.4 19.35 7.35 19.1 6.25 18.8 6.8 15.3 7.3 11.75 6.3 9.65 L6.3 9.4 Q6.3 8.7 7.25 7.95" fill="#acc9e3" fill-rule="evenodd" stroke="none"/>
    </g>
  </defs>
</svg>
